X: 38854
T: Sunday Morning
R: polka
M: 2/4
K: Dmajor
|:F/G/A DA|F/G/A d>e|fB B>d|ed cB|
F/G/A DA|F/G/A d>e|f/e/d ed/c/|d4:|
|:fA fA|gB B>d|c/B/A eB|fe ed/e/|
fA fA|gB B>d|c/B/A fe|fd d2:|

